X:352
T:B352-  An Old Woman Poor and Blind
S:(3rd/3)
Q:1/4=120
L:1/8
M:6/8
K:D
A|d2dc2c|B2BA2F|G3/2F/EA2A|(D3D2:|F|\
G3/2F/EA2A|(F3F2)B/c/|d3/2c/Be2e|(c3c2)B/A/|\
d2dc2c|B2B A3/2G/F|G3/2F/EA2A|(D3D2)|]

